app/dist/common/images/mobileye-global.svg

<svg height="18" viewBox="0 0 18 18" width="18" xmlns="http://www.w3.org/2000/svg"><path d="m0 0h18v18h-18z" fill="#1f2eb6"/><path d="m4 6v2h2l-2 2v2h2v-4h1.44c.43 0 .56.34.56.8v3.2h2v-4h1.18c.43 0 .82.34.82.8v3.2h2v-3.56c0-1.35-1-2.44-2.25-2.44h-3.75l-2 2v-2z" fill="#fff"/></svg>

<!-- by TradingView --><svg width="18" height="18" viewBox="0 0 18 18" xmlns="http://www.w3.org/2000/svg"><path fill="#1F2EB6" d="M0 0h18v18H0z"/><path d="M4 6v2h2l-2 2v2h2V8h1.44c.43 0 .56.34.56.8V12h2V8h1.18c.43 0 .82.34.82.8V12h2V8.44C14 7.09 13 6 11.75 6H8L6 8V6H4Z" fill="#fff"/></svg>
